X: 114
T:Reavy's Grand Hornpipe
R:Hornpipe
C:Ed Reavy
M:4/4
L:1/8
Z:Joe Reavy
N:As excellent as the other tunes are, some feel 
N:that Ed's reputation will stand because of the high 
N:quality of his hornpipes. If this dance form were 
N:more fashionable today among the musicians, Ed would 
N:certainly be much more widely acclaimed. No one has 
N:written so many exquisite hornpipes, and the 
N:Grand Hornpipe surely is a fitting example of 
N:Ed's talent for this rhythmical dance form.
K:D
AG|FGAB =cAFA|G2 GF G2 EF|GEcd edcB|Adfa gece|
fedc dAFD|EFGE CDEG|FAce gece|d2 dc d2:|
fg|a^gba fdAf|gfge cdec|dfaf efge|cdef gece|
(3a^ga ba fdAf|gecA ^GABd|cdef gece|1d2 dc d2:|
[2(3dcd AF D2 DE||
